src/icons/flags/bf.svg

<svg viewBox="0 0 640 480" xmlns="http://www.w3.org/2000/svg"><g fill-rule="evenodd"><path d="m640 479.6h-639.6v-479.6h639.6z" fill="#de0000"/><path d="m639.6 480h-639.6v-239.8h639.6z" fill="#35a100"/><path d="m254.6 276.2-106-72.4h131l40.4-117.2 40.4 117.4 131-.1-106 72.4 40.5 117.3-106-72.6-105.9 72.4" fill="#fff300"/></g></svg>

<svg xmlns="http://www.w3.org/2000/svg" id="flag-icons-bf" viewBox="0 0 640 480">
  <g fill-rule="evenodd">
    <path fill="#de0000" d="M640 479.6H.4V0H640z"/>
    <path fill="#35a100" d="M639.6 480H0V240.2h639.6z"/>
    <path fill="#fff300" d="m254.6 276.2-106-72.4h131L320 86.6 360.4 204l131-.1-106 72.4 40.5 117.3-106-72.6L214 393.4"/>
  </g>
</svg>
